src/assets/app-exchange/coins/NIX.svg

<svg width="21" height="21" viewBox="0 0 21 21" fill="none" xmlns="http://www.w3.org/2000/svg">
<path d="M10.5 21C16.299 21 21 16.299 21 10.5C21 4.70101 16.299 0 10.5 0C4.70101 0 0 4.70101 0 10.5C0 16.299 4.70101 21 10.5 21Z" fill="#1D6FE0"/>
<path d="M7.7002 5.3999C7.5002 5.0999 7.3002 4.8999 6.8002 4.8999C6.3002 4.8999 5.8002 5.2999 5.8002 5.7999C5.8002 6.0999 5.9002 6.2999 6.1002 6.4999L9.3002 10.3999L6.0002 14.4999C5.8002 14.6999 5.7002 14.9999 5.7002 15.1999C5.7002 15.6999 6.1002 16.0999 6.6002 16.0999C7.0002 16.0999 7.3002 15.8999 7.6002 15.5999L11.6002 10.3999L7.7002 5.3999Z" fill="white"/>
<path d="M14.3002 4.8999C13.9002 4.8999 13.6002 5.0999 13.3002 5.3999L11.1002 8.2999L12.2002 9.7999L14.8002 6.5999C15.0002 6.3999 15.1002 6.0999 15.1002 5.8999C15.1002 5.2999 14.7002 4.8999 14.3002 4.8999Z" fill="white"/>
<path d="M12.3002 11.0999L11.1002 12.5999L13.4002 15.5999C13.6002 15.8999 13.9002 16.0999 14.3002 16.0999C14.8002 16.0999 15.3002 15.6999 15.3002 15.1999C15.3002 14.9999 15.2002 14.6999 15.0002 14.4999L12.3002 11.0999Z" fill="white"/>
</svg>

<?xml version="1.0" encoding="utf-8"?>
<!-- Generator: Adobe Illustrator 24.2.0, SVG Export Plug-In . SVG Version: 6.00 Build 0)  -->
<svg version="1.1" id="Layer_1" xmlns="http://www.w3.org/2000/svg" xmlns:xlink="http://www.w3.org/1999/xlink" x="0px" y="0px"
	 width="21px" height="21px" viewBox="0 0 21 21" style="enable-background:new 0 0 21 21;" xml:space="preserve">
<style type="text/css">
	.st0{fill:#FFFFFF;}
	.st1{fill:url(#SVGID_1_);}
	.st2{opacity:0.1;enable-background:new    ;}
	.st3{opacity:0.1;fill:#FFFFFF;enable-background:new    ;}
	.st4{opacity:0.15;fill:#FFFFFF;enable-background:new    ;}
</style>
<g>
	<circle class="st0" cx="10.5" cy="10.5" r="10.5"/>
	
		<linearGradient id="SVGID_1_" gradientUnits="userSpaceOnUse" x1="-232.6862" y1="255.3479" x2="-232.5169" y2="255.5844" gradientTransform="matrix(35.6867 0 0 -41.8187 8311.293 10693.9531)">
		<stop  offset="0" style="stop-color:#3C17BF"/>
		<stop  offset="1" style="stop-color:#00C1FF"/>
	</linearGradient>
	<path class="st1" d="M14.3,4.9c-0.4,0-0.7,0.2-1,0.5l-1.6,2.1l-0.6,0.8l1.1,1.5l1-1.2l1.6-2c0.2-0.2,0.3-0.5,0.3-0.7
		C15.1,5.3,14.7,4.9,14.3,4.9z M15,14.5l-1.6-2l-1.1-1.4l-1.2,1.5l0.7,0.9l1.6,2.1c0.2,0.3,0.5,0.5,0.9,0.5c0.5,0,1-0.4,1-0.9
		c0,0,0,0,0,0C15.3,15,15.2,14.7,15,14.5z M10.5,9.1l-0.3-0.4l-0.2-0.2L9.5,7.7L7.7,5.4C7.5,5.1,7.3,4.9,6.8,4.9c-0.5,0-1,0.4-1,0.9
		c0,0,0,0,0,0c0,0.3,0.1,0.5,0.3,0.7L8.1,9l1.2,1.4L8.1,12L6,14.5c-0.2,0.2-0.3,0.5-0.3,0.7c0,0.5,0.4,0.9,0.9,0.9c0,0,0,0,0,0
		c0.4,0,0.7-0.2,1-0.5l1.8-2.3l1.1-1.5l1.1-1.4L10.5,9.1L10.5,9.1z"/>
	<path class="st2" d="M11.6,10.4l-1.1,1.4l-1.1,1.5c-0.5-0.3-1-0.8-1.3-1.3l1.2-1.5L8.1,9c0.3-0.6,0.8-1,1.4-1.3l0.6,0.8l0.2,0.2
		l0.3,0.4C10.5,9.1,11.6,10.4,11.6,10.4z"/>
	<path class="st3" d="M12.3,9.8l-1.1-1.5l0.6-0.8c0.6,0.2,1.1,0.5,1.5,1C13.3,8.5,12.3,9.8,12.3,9.8z"/>
	<path class="st4" d="M13.4,12.5c-0.4,0.5-0.9,0.9-1.6,1.1l-0.7-0.9l1.2-1.5C12.3,11.1,13.4,12.5,13.4,12.5z"/>
</g>
</svg>
